X:1
T:Fully Persuaded
T:William Fiske Sherwin
T:Fully Persuaded
T:Public Domain
T:Public Domain
C:William Fiske Sherwin
Z:Public Domain
%%score ( 1 2 ) ( 3 4 )
L:1/8
M:6/8
K:G
V:1 treble 
V:2 treble 
V:3 bass 
V:4 bass 
V:1
 [Gd]3 [Gc]2 [GB] | [FA]3 G3 | [EA]3 [EG]2 [CE] | [B,D]3- [B,D]2 z | [DG]3 [DF]2 [DG] | %5
w: 1.~Ful- ly per-|suad- ed,|I be- lieve!|Ful- *|ly per- suad-|
w: 2.~Ful- ly per-|suad- ed—|hear my cry!|Ful- *|ly per- suad-|
w: 3.~Ful- ly per-|suad- ed,|more op- prest,|Ful- *|ly per- suad-|
w: 4.~Ful- ly per-|suad- ed,|sus is mine;|Ful- *|ly per- suad-|
 [FA]3 [FA]3 | [GB]3 [G^c]2 [Gc] | [Fd]3- [Fd]2 z | [Fc]3 [GB]2 [DA] | [DG]2 [CE] [B,D]3 | %10
w: ed, Thy|Spir- it give;|I *|will o- bey|Thy call; low|
w: ed— pass|me not by;|Just *|as I am|I come, I|
w: ed, now|I am blest;|Je- *|sus is now|my Guide, I|
w: ed, Lord|I am Thine!|O *|make my love|to Thee like|
 (D2 F) [GB]2 [DA] | [DG]2 [CE] [B,D]3 | [DG]3 [DA]2 [DA] | [DB]2 [=FB] [Ec]3 | [Dd]3 [CA]2 [DB] | %15
w: at * Thy feet|fall; Now I|sur- ren- der|all, Christ to|re- ceive. *|
w: will * no long-|roam, O make|my heart Thy|home; save, or|I die! *|
w: will * in Christ|bide, My soul|is sa- tis-|fied in Him|to rest! *|
w: Thine * own love|me, So rich,|so full and|free, Sav- ior|di- vine! *|
 [B,G]6 |] %16
w: |
w: |
w: |
w: |
V:2
 x6 | x3 G3 | x6 | x6 | x6 | x6 | x6 | x6 | x6 | x6 | c3 x3 | x6 | x6 | x6 | x6 | x6 |] %16
w: |Lord,|||||||||I||||||
w: |Lord,|||||||||er||||||
w: |no|||||||||a-||||||
w: |Je-|||||||||to||||||
V:3
 [G,B,]3 [G,E]2 [G,E] | [D,C]3 [E,B,]3 | [C,C]3 [C,C]2 [C,G,] | [G,,G,]3- [G,,G,]2 z | %4
 [B,,G,]3 [A,,C]2 [A,,B,] | [D,D]3 [D,D]3 | [G,D]3 [E,A,]2 [E,A,] | [D,A,]3- [D,A,]2 z | %8
 [D,A,]3 [D,D]2 [D,C] | [G,B,]2 G, G,3 | (F,2 A,) [D,D]2 [D,C] | [G,B,]2 [G,,G,] [G,,G,]3 | %12
 [B,,G,]3 [D,F,]2 [D,F,] | G,2 G, [C,G,]3 | [B,,G,]3 [D,F,]2 [D,F,] | [G,,G,]6 |] %16
V:4
 x6 | x6 | x6 | x6 | x6 | x6 | x6 | x6 | x6 | x2 G, G,3 | D,3 x3 | x6 | x6 | G,2 G, x3 | x6 | x6 |] %16

